X: 39260
T: Tailgating The Minister
R: reel
M: 4/4
K: Gmajor
|:f|gdBG EGBe|c2BG AGEF|GD G/A/B dBGE|A2Af dcAf|
gdBG EGBe|c2BG AGEF|GBdB eBdB|AGEF GFG:|
|:B|cEGc BEGE|DFAG FGAB|cEGc BEGE|ADFf dcAB|
cEGc BEGE|E/F/G AG FGAB|cEGc BEGE|AGFG A3:|

